src/assets/images/atoa_logo.svg

<svg width="30" height="12" viewBox="0 0 30 12" fill="none" xmlns="http://www.w3.org/2000/svg">
<g id="Clip path group">
<mask id="mask0_4276_18212" style="mask-type:luminance" maskUnits="userSpaceOnUse" x="0" y="0" width="30" height="12">
<g id="c">
<path id="Vector" d="M30 0H0V12H30V0Z" fill="white"/>
</g>
</mask>
<g mask="url(#mask0_4276_18212)">
<g id="b">
<g id="Group">
<g id="Clip path group_2">
<mask id="mask1_4276_18212" style="mask-type:luminance" maskUnits="userSpaceOnUse" x="-1" y="0" width="31" height="12">
<g id="a">
<path id="Vector_2" d="M30.0008 0H-0.0078125V12H30.0008V0Z" fill="white"/>
</g>
</mask>
<g mask="url(#mask1_4276_18212)">
<g id="Group_2">
<path id="Vector_3" d="M20.6137 8.49217C20.6437 9.36254 20.3299 10.2101 19.7391 10.8542C19.3287 11.3064 18.8261 11.6133 18.2456 11.8036C17.7419 11.9681 17.2104 12.0323 16.6816 11.9925C16.0029 11.9443 15.3697 11.751 14.8035 11.3674C14.3423 11.0555 13.9675 10.6336 13.7136 10.1405C13.5681 9.86656 13.4637 9.57305 13.4037 9.2692C13.3074 8.77947 13.3031 8.2763 13.3909 7.78501C13.517 7.05845 13.8857 6.3951 14.4378 5.90168C14.893 5.48568 15.4321 5.22425 16.0339 5.0842C16.5025 4.97516 16.9867 4.9487 17.4645 5.00603C18.0705 5.07707 18.6331 5.26838 19.141 5.60784C19.467 5.82642 19.7504 6.10164 19.9777 6.42024C20.2011 6.72589 20.3703 7.06708 20.4781 7.42916C20.5546 7.69213 20.6 7.96307 20.6131 8.23647C20.6172 8.32171 20.6137 8.40694 20.6137 8.49217ZM18.5566 8.49374C18.5555 8.18876 18.51 7.896 18.3781 7.62089C18.2621 7.36615 18.0702 7.15276 17.8283 7.00944C17.3644 6.74153 16.877 6.70906 16.3747 6.88767C16.1075 6.98198 15.8764 7.15628 15.7134 7.38649C15.5457 7.6232 15.4425 7.89883 15.4137 8.18671C15.3681 8.59011 15.3983 8.98439 15.5748 9.35834C15.7089 9.653 15.9429 9.89165 16.2361 10.0327C16.6064 10.2152 17.0322 10.2532 17.4293 10.1393C17.883 10.017 18.2083 9.73995 18.3996 9.31066C18.5151 9.04884 18.555 8.77331 18.5566 8.49374Z" fill="#475664"/>
<path id="Vector_4" d="M12.2376 0H10.0547V11.9899H12.2376V0Z" fill="#475664"/>
<path id="Vector_5" d="M21.0067 4.21121L22.0296 3.19128L21.0067 2.17188H7.99219V4.21121H21.0067Z" fill="#475664"/>
<path id="Vector_6" d="M6.22947 0H2.9111C2.9111 0 0.0234067 11.8661 -0.0078125 11.998C-0.0078125 11.9919 2.41393 12.0045 2.40831 11.998C2.55715 11.2978 2.706 10.6021 2.85533 9.90439H5.59622C5.73278 10.6031 5.869 11.3012 6.00486 11.9986H9.12882C8.16219 7.99802 7.19574 3.9985 6.22947 0ZM3.28754 7.91935C3.6297 6.25974 4.03887 4.61807 4.24667 2.938C4.26308 2.938 4.27992 2.93853 4.2968 2.93853C4.49219 4.61455 4.86656 6.2586 5.18469 7.91938L3.28754 7.91935Z" fill="#475664"/>
<path id="Vector_7" d="M27.0971 0H23.7788C23.7788 0 20.8906 11.866 20.8594 11.998C20.8594 11.9919 23.2816 12.0045 23.2755 11.998C23.4248 11.2977 23.5737 10.6021 23.7225 9.90436H26.4634C26.6 10.6031 26.7362 11.3011 26.872 11.9985H29.9965C29.0294 7.99801 28.0629 3.9985 27.0971 0ZM24.1547 7.91935C24.4969 6.25957 24.9065 4.61807 25.1137 2.938C25.1305 2.938 25.1469 2.93853 25.1638 2.93853C25.3597 4.61455 25.7341 6.2586 26.0522 7.91938L24.1547 7.91935Z" fill="#475664"/>
</g>
</g>
</g>
</g>
</g>
</g>
</g>
</svg>

<svg width="30" height="12" fill="none" xmlns="http://www.w3.org/2000/svg"><mask id="a" style="mask-type:luminance" maskUnits="userSpaceOnUse" x="0" y="0" width="30" height="12"><path d="M30 0H0v12h30V0z" fill="#fff"/></mask><g mask="url(#a)"><mask id="b" style="mask-type:luminance" maskUnits="userSpaceOnUse" x="-1" y="0" width="31" height="12"><path d="M30 0H-.007v12h30.009V0z" fill="#fff"/></mask><g fill="#475664" mask="url(#b)"><path d="M20.614 8.492c.03.87-.284 1.718-.875 2.362-.41.452-.913.76-1.493.95a4.058 4.058 0 0 1-1.564.188c-.68-.048-1.312-.241-1.878-.625a3.312 3.312 0 0 1-1.09-1.227 3.164 3.164 0 0 1-.31-.87c-.097-.49-.1-.994-.013-1.485a3.278 3.278 0 0 1 1.047-1.883 3.49 3.49 0 0 1 1.596-.818 4.138 4.138 0 0 1 1.43-.078 3.754 3.754 0 0 1 1.677.602c.326.218.61.494.837.812a3.31 3.31 0 0 1 .635 1.816c.004.086 0 .17 0 .256zm-2.057.002a1.998 1.998 0 0 0-.179-.873 1.372 1.372 0 0 0-.55-.612c-.464-.267-.951-.3-1.453-.121a1.368 1.368 0 0 0-.662.498c-.167.237-.27.513-.3.8-.045.404-.015.798.162 1.172.134.295.368.534.661.675.37.182.796.22 1.193.106.454-.122.78-.399.97-.828.116-.262.156-.538.158-.817zM12.238 0h-2.183v11.99h2.183V0z"/><path d="m21.007 4.211 1.023-1.02-1.023-1.02H7.992v2.04h13.015zM6.23 0H2.91S.023 11.866-.008 11.998c0-.006 2.422.007 2.416 0l.447-2.094h2.741L6.005 12h3.124L6.229 0zM3.287 7.92c.342-1.66.75-3.302.959-4.982h.05c.195 1.677.57 3.32.888 4.981H3.288zM27.097 0H23.78l-2.92 11.998c0-.006 2.423.007 2.416 0l.448-2.094h2.74L26.872 12h3.125L27.097 0zm-2.942 7.92c.342-1.66.752-3.302.959-4.982h.05c.196 1.677.57 3.32.888 4.981h-1.897z"/></g></g></svg>
